X:1
T:Ecclesiam tuam
T:Andrea Gabrieli
T:Source : Liber primus Ecclesiasticarum Cantionum---Venetia---Ang.Gardano---1576. Editor : André Vierendeels (10/09/17).
T:Ecclesiam tuam
T:©
T:©
T:©
T:©
T:©
C:Andrea Gabrieli
Z:©
%%score [ 1 2 3 4 ]
L:1/8
Q:1/4=120
M:2/2
K:F
V:1 treble nm="Soprano" snm="S"
V:2 treble-8 nm="Tenor 1" snm="T 1"
V:3 treble-8 nm="Tenor 2" snm="T 2"
V:4 bass nm="Bass" snm="B"
V:1
 z8 | z8 | z8 | z8 | z8 | z8 | D4 G4- | G2 G2 A4 | B3 A GF G2 | A4 B2 A2 | G8 | z2 F2 B4- | %12
w: ||||||Ec- cle-|* si- am|tu- * * * *|am Do- mi-|ne|be- ni-|
 B2 G2 D2 G2- | GF/E/ F2 G4 | z4 D4 | F6 E2 | D2 A3 G/F/ G2 | A2 A2 B4 | B2 c2 BA/G/ A2 | %19
w: * rnus il- lu-|* * * * tra,|be-|ni- gnus|il- lu- * * *|stra, be- ni-|gnus il- lu- * * *|
 G4 z2 A2- | A2 B2 B4 | B2 B2 A4 | G2 G2 G3 G | F4 B4 | A8 | z8 | z4 z2 F2- | F2 F2 F2 B2 | %28
w: stra ut|_ be- a-|ti Io- an-|nis A- po- sto-|li tu-|i||et|_ E- van- ge-|
 A4 F2 A2 | A2 A2 cBAG | F4 G2 G2 | F8 | F4 z4 | z4 z2 D2 | D2 D2 F4 | E2 F2 DC/D/ E2- | ED D4 C2 | %37
w: li- stae, il-|lu- mi- na- * * *|* ta doc-|tri-|nis|il-|lu- mi- na-|ta doc- tri- * * *||
 D2 A2 B4 | B2 A2 G2 F2 | G2 A2 B2 A2- | AG G4 F2 | G4 z4 | z8 | z2 d2 _e4 | _e2 d2 c2 =B2 | %45
w: nis, ad do-|na per- ve- ni-|at sem- pi- ter-||na,||ad do-|na per- ve- ni-|
 c4 z4 | z8 | z4 z2 A2 | B4 B2 A2 | G2 F2 G2 A2 | B2 A3 G G2- |"^#" G2 F2 G4- | G8- | G8- | G8 |] %55
w: at,||ad|do- na per-|ve- ni- at sem-|pi- ter- * *|* * na.|_|||
V:2
 z8 | z8 | z8 | z8 | z8 | z8 | z8 | z8 | G4 c4- | c2 c2 d4 | _e3 d cB c2 | d4 _e2 d2 | G8 | %13
w: ||||||||Ec- cle-|* si- am|tu- * * * *|am Do- mi-|ne|
 z4 z2 G2 | B6 A2 | c2 d3 c/B/ c2 | d4 z2 d2 | f2 d4 d2 | fd g3 f/e/ f2 | g2 c4 f2 | f4 f2 f2 | %21
w: be-|ni- gnus|il- lu- * * *|stra, be-|i- gnus il-|lu- * * * * *|stra ut be-|a- ti Io-|
 g4 f4 | _e2 d4 d2 | d2 f4 e2 | f4 z4 | z8 | z2 d4 d2 | d2 A2 B4 | d2 d2 d2 d2 | f4 e2 f2 | %30
w: an- nis|A- po- sto-|li tu- *|i||et E-|van- ge- li-|stae, il- lu- mi-|na- ta doc-|
 d3 c BGBc | d4 c4 | d8- | d4 z4 | z4 z2 A2 | A2 A2 B4 | B2 G2 A4 | A4 z2 d2 | f4 d2 d2 | %39
w: tri- * * * * *||nis,|_|il-|lu- mi- na-|ta doc- tri-|nis, ad|do- na per-|
 d2 c2 d2 d2- | d2 d2 d4 | B2 B3 c d2- | d2 c2 B4 | A4 c2 c2 | B4 G4 | z2 G2 B4 | A2 G2 A2 c2 | %47
w: ve- ni- at sem-|* pi- ter-|na, sem- * *|* pi- ter-|na, sem- pi-|ter- na|ad do-|na per- ve- ni-|
 d4 z4 | z2 d2 f4 | d6 c2 | d2 d2 B3 c | d2 d4 _e2 | dB _e2 d4 | _e2 e2 e4 | [Dd]8 |] %55
w: at,|ad do-|na per-|ve- ni- at _|_ sem- pi-|ter- * * na,|sem- pi- ter-|na.|
V:3
 D4 G4- | G2 G2 A4 | B3 A GF G2 | A4 B2 A2 | G8 | z2 F2 B4- | B2 G2 B2 c2- | cB/A/ B2 c4 | %8
w: Ec- cle-|* si- am|tu- * * * *|am Do- mi-|ne|be- ni-|* gnus il- lu-|* * * * stra,|
 z2 d2 _e4 | c2 c2 F4 | c2 c2 _e4 | B4 z2 G2 | B6 G2 | A2 d3 c/B/ c2 | d4 z4 | z8 | z2 A2 B4 | %17
w: be- ni-|gnus il- lu-|stra, be- ni-|gnus, be-|ni- gnus|il- lu- * * *|stra,||be- ni-|
 A2 F2 GABc | dB _e2 d4 | z4 z2 c2- | c2 d2 d4 | _e2 e2 c4 | c2 B2 G3 G | B2 d4 cB | c2 F4 F2 | %25
w: gnus il- lu- * * *|* * * stra|ut|_ be- a-|ti Io- an-|nis A- po- sto-|li tu- * *|i et E-|
 F2 B2 A4 | F8 | z8 | z8 | z4 A2 A2 | A2 B4 G2 | A2 B4 A2 | B2 F2 F2 F2 | B4 B2 G2 | F3 G AB c2- | %35
w: van- ge- li-|stae|||il- lu-|mi- na- ta|doc- tri- *|nis, il- lu- mi-|na- ta doc-|tri- * * * *|
 cB A2 G2 G2 | F2 ED E4 | D2 F2 G4 | D4 z4 | z4 z2 A2 | B4 B2 A2 | G2 G2 G2 A2 | B2 A3 G G2- | %43
w: * * * nis, doc-|tri- * * *|nis, ad do-|na,|ad|do- na per-|ve- ni- at sem-|pi- ter- * *|
 G2 F2 G4- | G4 z2 d2 | _e4 e2 d2 | c2 =B2 c2 A2- | A2 G2 F4 | G4 z2 A2 | B4 B2 A2 | G2 F2 G2 G2 | %51
w: * * na,|_ ad|do- na per-|ve- ni- at sem-|* pi- ter-|na, ad|do- na per-|ve- ni- at, ad|
 A4 G2 G2 | B2 G2 G2 G2- | G2 c2 cG c2- | c2 =BA B4 |] %55
w: do- na per-|ve- ni- at sem-|* pi- ter- * *|* * * na.|
V:4
 z8 | z8 | G,,4 C,4- | C,2 C,2 D,4 | _E,3 D, C,B,, C,2 | D,4 _E,2 D,2 | G,,4 z2 C,2 | G,4 F,2 F,2 | %8
w: ||Ec- cle-|* si- am|tu- * * * *|am Do- mi-|ne be-|ni- gnus il-|
 B,A,G,F, _E,D, C,2 | F,4 D,4 | z8 | z8 | z8 | D,4 _E,4 | D,2 G,,2 D,E,F,G, | A,F, B,2 A,2 A,2 | %16
w: lu- * * * * * *|* stra,||||be- ni-|gnus il- lu- * * *|* * * stra, il-|
 D,E,F,D, G,4 | D,4 z4 | z8 | z4 F,4- | F,2 B,2 B,4 | _E,2 E,2 F,4 | C,2 G,2 B,3 B, | B,4 G,4 | %24
w: lu- * * * *|stra,||ut|_ be- a-|ti Io- an-|nis A- po- sto-|li tu-|
 F,4 z2 D,2- | D,2 D,2 D,2 A,,2 | B,,4 D,4- | D,4 z4 | z8 | z4 z2 D,2 | D,2 D,2 _E,4 | %31
w: i et|_ E- van- ge-|li- stae,|_||il-|lu- mi- na-|
 D,2 B,,2 F,4 | B,,8 | z2 G,,2 G,,2 G,,2 | B,,4 A,,3 B,, | C,2 D,2 G,,3 A,, | B,,4 A,,4 | D,4 z4 | %38
w: ta doc- tri-|nis,|il- lu- mi-|na- ta _|_ doc- tri- *||nis,|
 z2 A,2 B,4 | B,2 A,2 G,2 F,2 | G,4 z2 D,2 | _E,4 E,2 D,2 | B,,2 C,2 D,4- | D,4 C,3 D, | %44
w: ad do-|na per- ve- ni-|at, ad|do- na per-|ve- ni- at|_ sem- *|
 _E,2 B,,2 C,2 G,,2 | C,4 G,,4 | z4 A,,4 | B,,4 B,,2 A,,2 | G,,2 G,,2 D,4 | z8 | z2 D,2 _E,4 | %51
w: * pi- ter- *|* na,|ad|do- na per-|ve- ni- at,||ad do-|
 D,2 D,2 B,,2 C,2 | G,,2 C,4 B,,2 | C,8 | G,,8 |] %55
w: na per- ve- ni-|at sem- pi-|ter-|na.|

